icons/artboard-fill.svg

<svg xmlns="http://www.w3.org/2000/svg" width="24" height="24" fill="none"><g clip-path="url(#a)"><g><path fill="#121212" d="M8.586 17H3V15H21V17H15.414L18.657 20.243L17.243 21.657L13 17.414V20H11V17.414L6.757 21.657L5.343 20.243L8.586 17ZM5 3H19C19.2652 3 19.5196 3.10536 19.7071 3.29289C19.8946 3.48043 20 3.73478 20 4V14H4V4C4 3.73478 4.10536 3.48043 4.29289 3.29289C4.48043 3.10536 4.73478 3 5 3Z"/></g></g><defs><clipPath id="a"><rect width="24" height="24" fill="white"/></clipPath></defs></svg>

<svg width="24" height="24" fill="none" xmlns="http://www.w3.org/2000/svg"><g clip-path="url(#a)"><path d="M8.586 17H3v-2h18v2h-5.586l3.243 3.243-1.414 1.414L13 17.414V20h-2v-2.586l-4.243 4.243-1.414-1.414L8.586 17ZM5 3h14a1 1 0 0 1 1 1v10H4V4a1 1 0 0 1 1-1Z" /></g><defs><clipPath id="a"><path fill="#fff" d="M0 0h24v24H0z"/></clipPath></defs></svg>
